polaris-icons/icons/new-icons/GiftCardMajor.svg

<svg width="20" height="20" viewBox="0 0 20 20" fill="none" xmlns="http://www.w3.org/2000/svg">
<path fill-rule="evenodd" clip-rule="evenodd" d="M10.1 7.45001C10.4305 7.00935 10.9492 6.75 11.5 6.75C12.4665 6.75 13.25 7.53353 13.25 8.50001C13.25 9.34993 12.6441 10.0584 11.8407 10.2169C12.0091 10.3528 12.1745 10.4937 12.329 10.6364C12.6482 10.931 12.9825 11.2879 13.1708 11.6646C13.3561 12.0351 13.2059 12.4856 12.8354 12.6708C12.4649 12.8561 12.0144 12.7059 11.8292 12.3354C11.7675 12.2121 11.6018 12.0065 11.3116 11.7386C11.0365 11.4846 10.7026 11.2225 10.3714 10.9816C10.0459 10.7448 9.73345 10.5363 9.50003 10.3855C9.2666 10.5363 8.95414 10.7448 8.62862 10.9816C8.29738 11.2225 7.96351 11.4847 7.68839 11.7386C7.39821 12.0065 7.23248 12.2121 7.17082 12.3354C6.98558 12.7059 6.53507 12.8561 6.16459 12.6708C5.79411 12.4856 5.64394 12.0351 5.82918 11.6646C6.01752 11.2879 6.35179 10.931 6.67098 10.6364C6.82557 10.4937 6.99098 10.3528 7.15938 10.2169C6.35593 10.0584 5.75 9.34995 5.75 8.5C5.75 7.5335 6.5335 6.75 7.5 6.75C8.05083 6.75 8.5695 7.00934 8.9 7.45L9.50001 8.25001L10.1 7.45001ZM11 8.75005H11.5C11.638 8.75005 11.75 8.63811 11.75 8.50001C11.75 8.36193 11.6381 8.25 11.5 8.25C11.4213 8.25 11.3472 8.28705 11.3 8.35L11 8.75005ZM7.5 8.75H8L7.7 8.35C7.65279 8.28705 7.57869 8.25 7.5 8.25C7.36193 8.25 7.25 8.36193 7.25 8.5C7.25 8.63807 7.36193 8.75 7.5 8.75Z" fill="#4A4A4A"/>
<path fill-rule="evenodd" clip-rule="evenodd" d="M5.25 4.5C3.73122 4.5 2.5 5.73122 2.5 7.25V12.75C2.5 14.2688 3.73122 15.5 5.25 15.5H14.75C16.2688 15.5 17.5 14.2688 17.5 12.75V7.25C17.5 5.73122 16.2688 4.5 14.75 4.5H5.25ZM4 7.25C4 6.55964 4.55964 6 5.25 6H8.75V6.25C8.75 6.66421 9.08579 7 9.5 7C9.91421 7 10.25 6.66421 10.25 6.25V6H14.75C15.4404 6 16 6.55964 16 7.25V9.25H14.25C13.8358 9.25 13.5 9.58579 13.5 10C13.5 10.4142 13.8358 10.75 14.25 10.75H16V12.75C16 13.4404 15.4404 14 14.75 14H10.25V12.5C10.25 12.0858 9.91421 11.75 9.5 11.75C9.08579 11.75 8.75 12.0858 8.75 12.5V14H5.25C4.55964 14 4 13.4404 4 12.75V10.75H4.75C5.16421 10.75 5.5 10.4142 5.5 10C5.5 9.58579 5.16421 9.25 4.75 9.25H4V7.25Z" fill="#4A4A4A"/>
</svg>

<svg viewBox="0 0 20 20" xmlns="http://www.w3.org/2000/svg"><path fill-rule="evenodd" d="M10.1 7.45a1.75 1.75 0 1 1 1.74 2.767c.17.136.335.277.489.42.32.294.653.65.842 1.028a.75.75 0 1 1-1.342.67c-.062-.123-.227-.329-.517-.596a10.704 10.704 0 0 0-.94-.757 19.415 19.415 0 0 0-.872-.596c-.233.15-.546.359-.871.596-.332.24-.665.503-.94.757-.29.268-.457.473-.518.596a.75.75 0 1 1-1.342-.67c.189-.377.523-.734.842-1.029.155-.142.32-.283.488-.42a1.75 1.75 0 1 1 1.741-2.766l.6.8.6-.8Zm.9 1.3h.5a.25.25 0 1 0-.2-.4l-.3.4Zm-3.5 0h.5l-.3-.4a.25.25 0 1 0-.2.4Z" fill="#5C5F62"/><path fill-rule="evenodd" d="M5.25 4.5a2.75 2.75 0 0 0-2.75 2.75v5.5a2.75 2.75 0 0 0 2.75 2.75h9.5a2.75 2.75 0 0 0 2.75-2.75v-5.5a2.75 2.75 0 0 0-2.75-2.75h-9.5Zm-1.25 2.75c0-.69.56-1.25 1.25-1.25h3.5v.25a.75.75 0 0 0 1.5 0v-.25h4.5c.69 0 1.25.56 1.25 1.25v2h-1.75a.75.75 0 0 0 0 1.5h1.75v2c0 .69-.56 1.25-1.25 1.25h-4.5v-1.5a.75.75 0 0 0-1.5 0v1.5h-3.5c-.69 0-1.25-.56-1.25-1.25v-2h.75a.75.75 0 0 0 0-1.5h-.75v-2Z" fill="#5C5F62"/></svg>
